src/assets/disclaimer.svg

<svg height="60" viewBox="0 0 60 60" width="60" xmlns="http://www.w3.org/2000/svg"><g fill="#3d4450"><path d="m2.56119588 40.8247423 2.25674226.7490103v7.014433c.00483279 2.9743917 2.41379382 5.3833608 5.38818556 5.3881855h7.1134021l1.3989897 4.9001444v-.0024161c.2319587.8215051 1.0897113 1.2975464 1.9112165 1.0631752.8215051-.2319587 1.2975464-1.0897113 1.0631752-1.9112165l-1.7203299-6.0188659c-.188468-.6620413-.7949691-1.1187217-1.4835464-1.1187217h-8.2830928c-1.26612367-.0024161-2.29057728-1.0293402-2.29540202-2.295402v-8.1402062c.00724887-.6716908-.42283917-1.2733609-1.06317526-1.4835464l-3.31509278-1.0752371c-.08456907-.0289949-.15222062-.0894-.18604948-.1691382-.03624371-.0821505-.03624371-.1715505 0-.2537072l3.53251546-7.9181443v.0024161c.68381443-1.5270928 1.03416495-3.182165 1.03175258-4.8566598 0-5.2601444 2.0900412-10.3026805 5.8086186-14.0214433 3.7185773-3.72098973 8.7637113-5.80861859 14.0239175-5.80861859h.0555736c2.488701.00483216 4.9532783.48807835 7.2606185 1.42317525l-12.3080412 21.32103094c-.7248866 1.254-.7248866 2.8003917 0 4.056866.7248866 1.2564742 2.0634433 2.0296082 3.5132165 2.0296082h19.1437113c-.8795257 1.7276289-2.0054845 3.3175052-3.3465154 4.7189072-.381767.3986784-.5219072.9689073-.372099 1.4980825l3.2716083 11.4748454.002416-.0024161c.2319588.8239175 1.0897114 1.2999587 1.9112165 1.0655876.8215052-.2343773 1.2975464-1.0897113 1.0631753-1.9112165l-3.0444742-10.6459794c1.6357732-1.8363711 2.9623299-3.9264123 3.9288247-6.185567h6.2727835c1.4497732 0 2.7883299-.7731958 3.5132165-2.0296082.7248866-1.254.7248866-2.8003918 0-4.056866l-14.4129897-24.97670103c-.7248866-1.2588866-2.0634433-2.03449484-3.5156288-2.03449484-1.4521856 0-2.7931547.77560824-3.5180413 2.03449484l-.5388185.93507217.0024167-.0024167c-2.7786805-1.18397939-5.7699588-1.80012372-8.7903093-1.80494846h-.0676578c-6.0840618-.00724886-11.9214433 2.40414433-16.2247422 6.70515464-4.30571136 4.29847418-6.72432992 10.13381448-6.72432992 16.21793818.0024167 1.2395257-.26095051 2.4645773-.76595876 3.5929484l-3.53251546 7.9181443c-.39142887.8795258-.39142887 1.8822681-.00241609 2.761732.3890165.8771134 1.13078351 1.5512165 2.04414433 1.8532577zm38.11608252-37.11340209c.3431072-.00241609.6644536.18121855.8336288.48324742l14.4129897 24.96432987c.1715505.297198.1715505.666866 0 .9640825-.1715505.2996165-.4904969.4832474-.8360412.4832474h-28.8235052c-.3455196 0-.6644536-.1836371-.8360412-.4832474-.1715505-.2971979-.1715505-.666866 0-.9640825l14.4129897-24.96432987c.1691381-.30202887.4904969-.48566598.8360412-.48324742z"/><path d="m39.131134 13.1925773v7.0218557c0 .8553402.6910516 1.5463917 1.5463918 1.5463917.8529278 0 1.5463917-.6910515 1.5463917-1.5463917v-7.0218557c0-.8529278-.6934639-1.5463917-1.5463917-1.5463917-.8553402 0-1.5463918.6934639-1.5463918 1.5463917z"/><path d="m40.6775258 24.5245361c-.8553402 0-1.5463918.6934639-1.5463918 1.5463917v.1111485c0 .8553402.6910516 1.5463917 1.5463918 1.5463917.8529278 0 1.5463917-.6910515 1.5463917-1.5463917v-.1111485c0-.4083464-.164301-.8022062-.4542556-1.0921237-.2899547-.2899175-.6838145-.4542495-1.0921238-.4542495z"/></g></svg>

<?xml version="1.0" encoding="UTF-8"?>
<svg width="60px" height="60px" viewBox="0 0 60 60" version="1.1" xmlns="http://www.w3.org/2000/svg" xmlns:xlink="http://www.w3.org/1999/xlink">
    <!-- Generator: Sketch 50 (54983) - http://www.bohemiancoding.com/sketch -->
    <title>np_alert_1377813_000000</title>
    <desc>Created with Sketch.</desc>
    <defs></defs>
    <g id="Welcome" stroke="none" stroke-width="1" fill="none" fill-rule="evenodd">
        <g id="Disclaimer-/-Terms---Not-all-checked" transform="translate(-608.000000, -114.000000)" fill="#FFFFFF" fill-rule="nonzero">
            <g id="Group-13" transform="translate(608.000000, 114.000000)">
                <g id="np_alert_1377813_000000">
                    <path d="M2.56119588,40.8247423 L4.81793814,41.5737526 L4.81793814,48.5881856 C4.82277093,51.5625773 7.23173196,53.9715464 10.2061237,53.9763711 L17.3195258,53.9763711 L18.7185155,58.8765155 L18.7185155,58.8740994 C18.9504742,59.6956045 19.8082268,60.1716458 20.629732,59.9372746 C21.4512371,59.7053159 21.9272784,58.8475633 21.6929072,58.0260581 L19.9725773,52.0071922 C19.7841093,51.3451509 19.1776082,50.8884705 18.4890309,50.8884705 L10.2059381,50.8884705 C8.93981443,50.8860544 7.91536082,49.8591303 7.91053608,48.5930685 L7.91053608,40.4528623 C7.91778495,39.7811715 7.48769691,39.1795014 6.84736082,38.9693159 L3.53226804,37.8940788 C3.44769897,37.8650839 3.38004742,37.8046788 3.34621856,37.7249406 C3.30997485,37.6427901 3.30997485,37.5533901 3.34621856,37.4712334 L6.87873402,29.5530891 L6.87873402,29.5555052 C7.56254845,28.0284124 7.91289897,26.3733402 7.9104866,24.6988454 C7.9104866,19.438701 10.0005278,14.3961649 13.7191052,10.6774021 C17.4376825,6.95641237 22.4828165,4.86878351 27.7430227,4.86878351 L27.7985963,4.86878351 C30.2872973,4.87361567 32.7518746,5.35686186 35.0592148,6.29195876 L22.7511736,27.6129897 C22.026287,28.8669897 22.026287,30.4133814 22.7511736,31.6698557 C23.4760602,32.9263299 24.8146169,33.6994639 26.2643901,33.6994639 L45.4081014,33.6994639 C44.5285757,35.4270928 43.4026169,37.0169691 42.061586,38.4183711 C41.679819,38.8170495 41.5396788,39.3872784 41.689487,39.9164536 L44.9610953,51.391299 L44.9635113,51.3888829 C45.1954701,52.2128004 46.0532227,52.6888416 46.8747278,52.4544705 C47.696233,52.2200932 48.1722742,51.3647592 47.9379031,50.543254 L44.8934289,39.8972746 C46.5292021,38.0609035 47.8557588,35.9708623 48.8222536,33.7117076 L55.0950371,33.7117076 C56.5448103,33.7117076 57.883367,32.9385118 58.6082536,31.6820994 C59.3331402,30.4280994 59.3331402,28.8817076 58.6082536,27.6252334 L44.1952639,2.64853237 C43.4703773,1.38964577 42.1318206,0.614037526 40.6796351,0.614037526 C39.2274495,0.614037526 37.8864804,1.38964577 37.1615938,2.64853237 L36.6227753,3.58360454 L36.625192,3.58118784 C33.8465115,2.39720845 30.8552332,1.78106412 27.8348827,1.77623938 L27.7672249,1.77623938 C21.6831631,1.76899052 15.8457816,4.18038371 11.5424827,8.48139402 C7.23677134,12.7798682 4.81815278,18.6152085 4.81815278,24.6993322 C4.82056948,25.9388579 4.55720227,27.1639095 4.05219402,28.2922806 L0.519678557,36.2104249 C0.128249691,37.0899507 0.128249691,38.092693 0.517262474,38.9721569 C0.906278969,39.8492703 1.64804598,40.5233734 2.5614068,40.8254146 L2.56119588,40.8247423 Z M40.6772784,3.71134021 C41.0203856,3.70892412 41.341732,3.89255876 41.5109072,4.19458763 L55.9238969,29.1589175 C56.0954474,29.4561155 56.0954474,29.8257835 55.9238969,30.123 C55.7523464,30.4226165 55.4334,30.6062474 55.0878557,30.6062474 L26.2643505,30.6062474 C25.9188309,30.6062474 25.5998969,30.4226103 25.4283093,30.123 C25.2567588,29.8258021 25.2567588,29.456134 25.4283093,29.1589175 L39.841299,4.19458763 C40.0104371,3.89255876 40.3317959,3.70892165 40.6773402,3.71134021 L40.6772784,3.71134021 Z" id="Shape"></path>
                    <path d="M39.131134,13.1925773 L39.131134,20.214433 C39.131134,21.0697732 39.8221856,21.7608247 40.6775258,21.7608247 C41.5304536,21.7608247 42.2239175,21.0697732 42.2239175,20.214433 L42.2239175,13.1925773 C42.2239175,12.3396495 41.5304536,11.6461856 40.6775258,11.6461856 C39.8221856,11.6461856 39.131134,12.3396495 39.131134,13.1925773 Z" id="Shape"></path>
                    <path d="M40.6775258,24.5245361 C39.8221856,24.5245361 39.131134,25.218 39.131134,26.0709278 L39.131134,26.1820763 C39.131134,27.0374165 39.8221856,27.728468 40.6775258,27.728468 C41.5304536,27.728468 42.2239175,27.0374165 42.2239175,26.1820763 L42.2239175,26.0709278 C42.2239175,25.6625814 42.0596165,25.2687216 41.7696619,24.9788041 C41.4797072,24.6888866 41.0858474,24.5245546 40.6775381,24.5245546 L40.6775258,24.5245361 Z" id="Shape"></path>
                </g>
            </g>
        </g>
    </g>
</svg>
